X: 5
T: Poll Ha'Penny
R: hornpipe
M: 4/4
L: 1/8
K: Dmaj
K:D
|:dA | (3.B.c.B {c}BG Az (3.A.B.c | .d.c {B}AF ~G2 FA | AF DE FA GE |DE FG A2 dA
(3.B.c.B {c}BG Az (3.A.B.c| .d.c {B}AF ~G2 FA | AF DE FA GE| D2 (3DDD D2 :|
|: (FG) | A.d .de ~f2 .e.f |.d.c {B}AG ~A2 (FG) | A.d .de ~f2 .e.f |gf ef d2 fg |
a.f (3.g.f.e fd ec | .d.c {B}AG ~A2 FG | AF DE FA GE| D2 (3DDD D2 :|


Tune 841	Setting 14006

